src/pos-icons/remote.svg

<svg height="24" viewBox="0 0 24 24" width="24" xmlns="http://www.w3.org/2000/svg"><path d="m12 0c-3.04 0-5.79 1.23-7.78 3.22l1.41 1.41c1.63-1.63 3.87-2.63 6.37-2.63s4.74 1 6.36 2.64l1.41-1.41c-1.98-2-4.73-3.23-7.77-3.23m-4.95 6.05 1.41 1.41c.91-.9 2.16-1.46 3.54-1.46s2.63.56 3.54 1.46l1.41-1.41c-1.27-1.27-3.02-2.05-4.95-2.05s-3.68.78-4.95 2.05m4.95 8.95a2 2 0 0 1 -2-2 2 2 0 0 1 2-2 2 2 0 0 1 2 2 2 2 0 0 1 -2 2m3-6h-6a1 1 0 0 0 -1 1v12a1 1 0 0 0 1 1h6a1 1 0 0 0 1-1v-12a1 1 0 0 0 -1-1z"/></svg>

<?xml version="1.0" encoding="UTF-8"?><!DOCTYPE svg PUBLIC "-//W3C//DTD SVG 1.1//EN" "http://www.w3.org/Graphics/SVG/1.1/DTD/svg11.dtd"><svg xmlns="http://www.w3.org/2000/svg" xmlns:xlink="http://www.w3.org/1999/xlink" version="1.1" id="mdi-remote" width="24" height="24" viewBox="0 0 24 24"><path d="M12,0C8.96,0 6.21,1.23 4.22,3.22L5.63,4.63C7.26,3 9.5,2 12,2C14.5,2 16.74,3 18.36,4.64L19.77,3.23C17.79,1.23 15.04,0 12,0M7.05,6.05L8.46,7.46C9.37,6.56 10.62,6 12,6C13.38,6 14.63,6.56 15.54,7.46L16.95,6.05C15.68,4.78 13.93,4 12,4C10.07,4 8.32,4.78 7.05,6.05M12,15A2,2 0 0,1 10,13A2,2 0 0,1 12,11A2,2 0 0,1 14,13A2,2 0 0,1 12,15M15,9H9A1,1 0 0,0 8,10V22A1,1 0 0,0 9,23H15A1,1 0 0,0 16,22V10A1,1 0 0,0 15,9Z" /></svg>
